X: 25846
T: Master Shanley's
R: hornpipe
M: 4/4
K: Cmajor
ed|:cAGE G2 (3EDC|GAGE G2 cd|eg (3g^fg ag (3gfg|edce d2ed|
cAGE G2 (3EDC|GAGE GAcd|egge dced|1 c2cB c2 ed:|2 c2 cB c^cde||
fA (3AGA fagf|eG (3GFG e2 de|fA (3AGA fgab|c'gac' d'2 c'a|
gedc e2 cd|ecdc AcGF|EG (3GFG FAcA|1 Gfed c^cde:|2 Gfed c2||

